X: 20112
M: C
L: 1/8
K: E
f2ff dBzc | F2G^A B2B>B |\
c2=dd {d}c2BA | AGF^E F2G>G |\
cfzc BezB |
e2d>e c2B>A | GBzE DFzB |\
cfzc Beze | defg Ha2B>B |\
g2e>B c2de | BB2A GEz |]


